X:0
T:Arkansas Summer
C:Copyright 2009 Caz Lewis
K:G
L:1/8
M:C
|: EG BG EG BG | DF AF B2B2| EG BG EG BG|DF AF E4:|
|: E(BB2) EB c/B/A/G/| F (A A)A FA B2|E (B B)B EB c/B/A/G/| c/B/A/G/ FD E4:|